other/asahi_shimbun.svg

<svg xmlns="http://www.w3.org/2000/svg" viewBox="0 0 48 48">
    <defs>
        <style>
            .a{
            fill:none;
            stroke:#fff;
            stroke-linecap:round;
            stroke-linejoin:round;
            }
            </style>
        </defs><path
     class="a"
     d="m 36.597501,22.903161 h 2.536913 m -2.539952,-1.07174 h 2.548227 m -3.538591,2.408179 3.484668,-0.325332 m 0.05498,-3.140864 v 3.779436 m -2.574704,-3.771431 v 3.043408 M 35.782435,20.72568 h 3.970784 M 38.48999,19.629654 h 2.756959 M 38.54994,18.39614 h 2.68903 m -2.749319,1.219101 v -2.549622 h 2.833429 v 7.382239 h -1.304798 m -5.662686,-4.808492 h 2.681505 m -2.647539,-1.275821 h 2.538046 m -2.566501,6.339238 v -7.598594 h 2.676044 v 2.532128 m -5.568147,0.419768 v 4.474742 m -1.930737,-4.582696 h 3.051074 m -4.280543,4.626034 c 1.610952,-0.56778 1.196093,-3.362558 1.196606,-6.888746 l 2.705319,-0.735604 m -5.517245,5.12273 1.311212,0.984876 m -0.426635,-4.607825 -0.153949,0.583079 m -0.915477,3.0624 -1.643275,1.643273 m 0.758694,-5.266222 0.153951,0.58308 m 0.850899,0.863965 v 4.7275 M 24.87288,21.350755 h 3.512035 M 24.87288,19.819056 h 3.512035 M 24.87288,17.694641 h 3.512035 M 26.628898,16.7392 v 0.89921 m -9.68654,6.227686 h 5.158447 m -5.140164,-3.231908 h 5.11936 m -5.1424,3.808008 v -6.976742 h 5.209615 v 6.976742 M 11.344194,21.626861 h 2.558465 M 11.30678,19.431915 h 2.519328 m -3.697479,5.119368 c 0,0 1.112375,-0.253296 1.112375,-2.928931 0,-2.675637 -0.0013,-4.32676 -0.0013,-4.32676 h 2.642785 l 0.03663,7.255691 H 12.664257 M 6.5702079,23.069295 H 10.106375 M 8.3382918,21.739531 v 2.885936 m -1.38351,-4.218613 H 9.7218017 M 6.9547818,21.65988 H 9.7218017 M 6.9547818,19.06747 h 2.7670199 v 2.55347 M 6.9547818,19.106307 v 2.561012 M 6.5702079,17.781528 H 10.106375 M 8.3382918,16.707704 v 2.314351 M 41.43368,31.29618 C 37.80579,29.697968 31.172593,28.71602 24.00197,28.715671 16.843784,28.719171 10.22668,29.700734 6.6050893,31.29618 M 43.500044,37.500029 V 10.499969 A 2.0000044,2.0000044 0 0 0 41.500039,8.4999655 H 6.4999607 A 2.0000044,2.0000044 0 0 0 4.4999561,10.499969 v 27.00006 a 2.0000044,2.0000044 0 0 0 2.0000046,2.000005 H 41.500039 a 2.0000044,2.0000044 0 0 0 2.000005,-2.000005 z"/>
</svg>

<?xml version="1.0" encoding="UTF-8"?><svg id="a" xmlns="http://www.w3.org/2000/svg" viewBox="0 0 48 48"><defs><style>.b{fill:none;stroke:#fff;stroke-linecap:round;stroke-linejoin:round;}</style></defs><path class="b" d="m36.5975,22.9032h2.5369m-2.5399-1.0717h2.5482m-3.5386,2.4082l3.4847-.3253m.055-3.1409v3.7794m-2.5747-3.7714v3.0434m-.7866-3.0991h3.9708m-1.2632-1.096h2.757m-2.697-1.2335h2.689m-2.7493,1.2191v-2.5496h2.8334v7.3822h-1.3048m-5.6627-4.8085h2.6815m-2.6475-1.2758h2.538m-2.5665,6.3392v-7.5986h2.676v2.5321m-5.5681.4198v4.4747m-1.9307-4.5827h3.0511m-4.2805,4.626c1.6109-.5678,1.1961-3.3626,1.1966-6.8887l2.7053-.7356m-5.5172,5.1227l1.3112.9849m-.4266-4.6078l-.1539.5831m-.9155,3.0624l-1.6433,1.6433m.7587-5.2662l.154.5831m.8509.864v4.7275m-1.756-3.2959h3.512m-3.512-1.5317h3.512m-3.512-2.1244h3.512m-1.756-.9554v.8992m-9.6865,6.2277h5.1584m-5.1402-3.2319h5.1193m-5.1424,3.808v-6.9767h5.2096v6.9767m-10.803-2.8153h2.5585m-2.5959-2.1949h2.5193m-3.6975,5.1194s1.1124-.2533,1.1124-2.9289-.0013-4.3267-.0013-4.3267h2.6428l.0366,7.2557h-1.2549m-6.094-1.482h3.5362m-1.7681-1.3298v2.8859m-1.3835-4.2186h2.767m-2.767,1.253h2.767m-2.767-2.5924h2.767v2.5535m-2.767-2.5146v2.561m-.3846-3.8858h3.5362m-1.7681-1.0738v2.3143m33.0953,12.2741c-3.6279-1.5982-10.2611-2.5802-17.4317-2.5805-7.1582.0035-13.7753.9851-17.3968,2.5805m36.8949,6.2038V10.5c0-1.1046-.8954-2-2-2H6.5c-1.1046,0-2,.8954-2,2v27c0,1.1046.8954,2,2,2h35c1.1046,0,2-.8954,2-2Z"/></svg>
